logos/google-developers.svg

<?xml version="1.0" encoding="UTF-8"?>
<svg width="256px" height="125px" viewBox="0 0 256 125" version="1.1" xmlns="http://www.w3.org/2000/svg" xmlns:xlink="http://www.w3.org/1999/xlink" preserveAspectRatio="xMidYMid">
    <g>
        <path d="M184.31481,67.7044587 C197.78381,59.9684587 211.21681,52.1694587 224.73181,44.5134587 C237.55981,37.2454587 252.65281,43.9484587 255.56081,58.0924587 C257.24381,66.2744587 253.59081,75.1134587 246.20381,79.4184587 C221.98581,93.5314587 197.73281,107.588459 173.35881,121.430459 C165.81481,125.714459 158.04381,124.926459 151.16881,119.676459 C144.18481,114.346459 141.98381,106.994459 143.62181,98.4374587 C145.49181,91.9234587 149.77181,87.5684587 155.60881,84.3104587 C165.25981,78.9244587 174.75381,73.2544587 184.31481,67.7044587" fill="#FABC05"></path>
        <path d="M194.20341,62.0789587 C180.76841,54.2829587 167.29941,46.5479587 153.91141,38.6729587 C141.20241,31.1969587 139.46241,14.7749587 150.25641,5.18295871 C156.50041,-0.364041286 165.98141,-1.62104129 173.40341,2.62395871 C197.73541,16.5409587 222.03541,30.5169587 246.20941,44.7039587 C253.69141,49.0949587 256.89341,56.2199587 255.78641,64.7989587 C254.66141,73.5109587 249.39541,79.0929587 241.16641,81.9539587 C234.58941,83.5919587 228.67841,82.0619587 222.93841,78.6359587 C213.44741,72.9709587 203.79041,67.5829587 194.20341,62.0789587" fill="#109D58"></path>
        <path d="M71.7518102,56.5628587 C63.1308102,61.4608587 54.5048102,66.3498587 45.8928102,71.2628587 C40.8548102,74.1368587 35.8728102,77.1088587 30.8088102,79.9348587 C20.6058102,85.6298587 8.48381017,82.2918587 2.69881017,72.2608587 C-2.82218983,62.6888587 0.35081017,50.2788587 10.1768102,44.5428587 C34.2018102,30.5198587 58.2888102,16.5988587 82.4628102,2.83385871 C89.8768102,-1.38814129 97.5688102,-0.857141286 104.42481,4.18985871 C111.66081,9.51685871 114.02981,17.0128587 112.40481,25.8008587 C111.39681,27.9268587 110.79481,30.4198587 109.28581,32.0948587 C106.83081,34.8198587 104.04081,37.4288587 100.93481,39.3448587 C91.3228102,45.2718587 81.4958102,50.8498587 71.7518102,56.5628587" fill="#E94436"></path>
        <path d="M61.8670102,62.0569587 C70.4200102,67.0729587 78.9670102,72.0999587 87.5280102,77.1019587 C92.5350102,80.0279587 97.6000102,82.8569587 102.57901,85.8279587 C112.61301,91.8179587 115.78401,103.983959 109.98901,114.008959 C104.45901,123.576959 92.1260102,127.034959 82.2450102,121.391959 C58.0880102,107.596959 33.9890102,93.6989587 9.98101017,79.6459587 C2.61801017,75.3359587 -0.76798983,68.4089587 0.17501017,59.9479587 C1.17001017,51.0169587 6.47701017,45.2179587 14.9000102,42.2309587 C17.2450102,42.0419587 19.7050102,41.3159587 21.9110102,41.7859587 C25.4980102,42.5499587 29.1530102,43.6609587 32.3650102,45.3929587 C42.3040102,50.7529587 52.0480102,56.4749587 61.8670102,62.0569587" fill="#4385F3"></path>
    </g>
</svg>

<svg preserveAspectRatio="xMidYMid" viewBox="0 0 256 125" xmlns="http://www.w3.org/2000/svg">
  <path fill="#FABC05" d="M184.315 67.704c13.469-7.736 26.902-15.535 40.417-23.19 12.828-7.269 27.92-.566 30.829 13.578 1.683 8.182-1.97 17.021-9.357 21.326-24.218 14.113-48.471 28.17-72.845 42.012-7.544 4.284-15.315 3.496-22.19-1.754-6.984-5.33-9.185-12.682-7.547-21.239 1.87-6.514 6.15-10.869 11.987-14.127 9.65-5.386 19.145-11.056 28.706-16.606"/>
  <path fill="#109D58" d="M194.203 62.079c-13.435-7.796-26.904-15.531-40.292-23.406-12.709-7.476-14.449-23.898-3.655-33.49 6.244-5.547 15.725-6.804 23.147-2.559 24.332 13.917 48.632 27.893 72.806 42.08 7.482 4.391 10.684 11.516 9.577 20.095-1.125 8.712-6.39 14.294-14.62 17.155-6.577 1.638-12.488.108-18.228-3.318-9.49-5.665-19.148-11.053-28.735-16.557"/>
  <path fill="#E94436" d="M71.752 56.563c-8.621 4.898-17.247 9.787-25.86 14.7-5.037 2.874-10.02 5.846-15.083 8.672-10.203 5.695-22.325 2.357-28.11-7.674-5.521-9.572-2.348-21.982 7.478-27.718C34.202 30.52 58.289 16.599 82.463 2.833c7.414-4.221 15.106-3.69 21.962 1.357 7.236 5.327 9.605 12.823 7.98 21.61-1.008 2.127-1.61 4.62-3.12 6.295-2.454 2.725-5.244 5.334-8.35 7.25-9.612 5.927-19.44 11.505-29.183 17.218"/>
  <path fill="#4385F3" d="M61.867 62.057c8.553 5.016 17.1 10.043 25.661 15.045 5.007 2.926 10.072 5.755 15.051 8.726 10.034 5.99 13.205 18.156 7.41 28.181-5.53 9.568-17.863 13.026-27.744 7.383-24.157-13.795-48.256-27.693-72.264-41.746C2.618 75.336-.768 68.409.175 59.948c.995-8.931 6.302-14.73 14.725-17.717 2.345-.189 4.805-.915 7.011-.445 3.587.764 7.242 1.875 10.454 3.607 9.939 5.36 19.683 11.082 29.502 16.664"/>
</svg>
